X: 117
T: My Kindly Sweetheart
T: The Gentle Milkmaid
R: reel
M: C|
L: 1/8
K: Bmin
|:B2d2 cBBc|B2d2 feef|B2d2 cB Bd|cAAc fe ef:|
|:d2 fe dBAB|d2ad feef|d2 fe dBBd|cAAA feef:| 
BdAd BdAd|Bdef gfed|BdAd BdA2|1faeg fd dd:|2faef d2 z2|]

